brandFactory_export/1.Light/Coche acelerando velocidad_1Light.svg

<?xml version="1.0" encoding="UTF-8"?>
<svg width="24px" height="24px" viewBox="0 0 24 24" version="1.1" xmlns="http://www.w3.org/2000/svg" xmlns:xlink="http://www.w3.org/1999/xlink">
    <title>1.Light/Coche acelerando velocidad_1Light</title>
    <g id="Symbols" stroke="none" stroke-width="1" fill="none" fill-rule="evenodd">
        <g id="1.Light/Coche-acelerando-velocidad_1Light" fill="#5CB615" fill-rule="nonzero">
            <path d="M22.3764706,14.7932773 C22.5815126,14.5478992 22.9647059,13.8453782 22.1512605,12.487395 C21.0319328,10.6218487 18.7764706,10.4470588 18.7529412,10.4470588 C18.5915966,10.4336134 18.4470588,10.3462185 18.3630252,10.205042 C18.2857143,10.0739496 16.4168067,7.02521008 11.8352941,7.02521008 C9.40168067,7.02521008 7.77478992,8.17142857 6.84033613,9.12941176 C5.59327731,10.410084 4.94789916,12.010084 4.95462185,12.9277311 C4.90756303,13.7579832 4.96470588,14.4067227 5.01512605,14.7932773 L6.42016807,14.7932773 C6.60168067,13.512605 7.5092437,12.7361345 8.88067227,12.7361345 C10.2554622,12.7361345 11.1596639,13.512605 11.3445378,14.7932773 L14.9680672,14.7932773 C15.1529412,13.5193277 16.0571429,12.7428571 17.4285714,12.7428571 C18.8,12.7428571 19.7042017,13.5159664 19.8890756,14.7932773 L22.3764706,14.7932773 Z M17.4252101,16.8336134 C18.4302521,16.8336134 18.9411765,16.3159664 18.9411765,15.287395 C18.9411765,14.2621849 18.4302521,13.7411765 17.4252101,13.7411765 C16.4168067,13.7411765 15.9092437,14.2621849 15.9092437,15.287395 C15.9092437,16.3159664 16.4168067,16.8336134 17.4252101,16.8336134 Z M8.87731092,16.8268908 C9.88235294,16.8268908 10.3932773,16.3092437 10.3932773,15.2806723 C10.3932773,14.2554622 9.88235294,13.7344538 8.87731092,13.7344538 C7.87226891,13.7344538 7.36134454,14.2554622 7.36134454,15.2806723 C7.36134454,16.3058824 7.87226891,16.8268908 8.87731092,16.8268908 Z M22.9882353,11.9663866 C24.1848739,13.9596639 23.4252101,15.2773109 22.8571429,15.697479 C22.7731092,15.7613445 22.6722689,15.794958 22.5680672,15.794958 L19.8823529,15.794958 C19.6941176,17.0655462 18.789916,17.8352941 17.4218487,17.8352941 C16.0537815,17.8352941 15.1495798,17.0655462 14.9613445,15.794958 L11.3378151,15.794958 C11.1495798,17.0621849 10.2453782,17.8285714 8.87731092,17.8285714 C7.51260504,17.8285714 6.60840336,17.0621849 6.42016807,15.794958 L4.60168067,15.794958 C4.37647059,15.794958 4.17815126,15.6369748 4.12436975,15.4117647 C4.11428571,15.3714286 3.88235294,14.389916 3.9697479,12.9042017 C3.95966387,11.8453782 4.63865546,9.96638655 6.14117647,8.42689076 C7.20672269,7.33109244 9.06218487,6.02689076 11.8352941,6.02689076 C16.3260504,6.02689076 18.5142857,8.68571429 19.0689076,9.47563025 C19.7815126,9.57647059 21.8285714,10.0302521 22.9882353,11.9663866 L22.9882353,11.9663866 Z M2.66554622,13.3579832 C2.93781513,13.3579832 3.15630252,13.5831933 3.15630252,13.8588235 C3.15630252,14.1344538 2.93445378,14.3596639 2.66554622,14.3596639 L1.05546218,14.3596639 C0.779831933,14.3563025 0.561344538,14.1344538 0.564705882,13.8588235 C0.564705882,13.5831933 0.786554622,13.3579832 1.05546218,13.3579832 L2.66554622,13.3579832 Z M2.93781513,10.8571429 C3.21008403,10.8571429 3.42857143,11.0823529 3.42857143,11.3579832 C3.42857143,11.6336134 3.20672269,11.8588235 2.93781513,11.8588235 L0.490756303,11.8588235 C0.21512605,11.8554622 -0.00336134454,11.6336134 -4.4784326e-16,11.3579832 L-4.4784326e-16,11.3546218 C-4.4784326e-16,11.0789916 0.218487395,10.8537815 0.490756303,10.8537815 C0.490756303,10.8571429 2.93781513,10.8571429 2.93781513,10.8571429 Z M3.56302521,8.38655462 C3.83529412,8.38655462 4.05378151,8.61176471 4.05378151,8.88739496 C4.05378151,9.16302521 3.83193277,9.38823529 3.56302521,9.38823529 L1.66386555,9.38823529 C1.38823529,9.38487395 1.1697479,9.15966387 1.17310924,8.88739496 C1.17310924,8.61176471 1.39495798,8.38655462 1.66386555,8.38655462 L3.56302521,8.38655462 L3.56302521,8.38655462 Z" id="Coche-acelerando-velocidad_1Light"></path>
        </g>
    </g>
</svg>

<svg width="24" height="24" viewBox="0 0 24 24" xmlns="http://www.w3.org/2000/svg"><path d="M22.376 14.793c.206-.245.589-.948-.225-2.306-1.12-1.865-3.375-2.04-3.398-2.04a.498.498 0 01-.39-.242c-.077-.131-1.946-3.18-6.528-3.18-2.433 0-4.06 1.146-4.995 2.104-1.247 1.281-1.892 2.881-1.885 3.799-.047.83.01 1.479.06 1.865H6.42c.182-1.28 1.09-2.057 2.46-2.057 1.375 0 2.28.777 2.465 2.057h3.623c.185-1.274 1.09-2.05 2.46-2.05 1.372 0 2.276.773 2.461 2.05h2.487zm-4.95 2.04c1.004 0 1.515-.517 1.515-1.546 0-1.025-.51-1.546-1.516-1.546-1.008 0-1.516.521-1.516 1.546 0 1.029.508 1.547 1.516 1.547zm-8.549-.006c1.005 0 1.516-.518 1.516-1.546 0-1.026-.51-1.547-1.516-1.547-1.005 0-1.516.521-1.516 1.547 0 1.025.511 1.546 1.516 1.546zm14.111-4.86c1.197 1.993.437 3.31-.13 3.73a.476.476 0 01-.29.098h-2.686c-.188 1.27-1.092 2.04-2.46 2.04-1.368 0-2.272-.77-2.46-2.04h-3.624c-.188 1.267-1.093 2.034-2.46 2.034-1.365 0-2.27-.767-2.458-2.034H4.602a.494.494 0 01-.478-.383c-.01-.04-.242-1.022-.154-2.508-.01-1.059.669-2.938 2.171-4.477 1.066-1.096 2.921-2.4 5.694-2.4 4.491 0 6.68 2.659 7.234 3.449.713.1 2.76.554 3.92 2.49zM2.666 13.357c.272 0 .49.225.49.5 0 .276-.222.502-.49.502h-1.61a.494.494 0 01-.491-.501c0-.276.222-.501.49-.501h1.61zm.272-2.5c.272 0 .49.224.49.5s-.221.5-.49.5H.49a.494.494 0 01-.491-.5v-.003c0-.276.218-.501.49-.501 0 .003 2.448.003 2.448.003zm.625-2.471c.272 0 .49.225.49.5 0 .276-.221.501-.49.501h-1.9a.496.496 0 01-.49-.5c0-.276.222-.501.49-.501h1.9z" fill="#5CB615" fill-rule="nonzero"/></svg>
